X:12
T:crn y ddafad felen
C:traddodiadol ar l john tose
Z:crm
M:C
L:1/4
Q:1/2=170
K:Em
EFGA|B2B2|AGAF|B2B2|EFGA|B2B2|AGAF|B4:||
AGF2|GFE2|DEFG|E2E2|AGF2|GFE2|DEFG|E4 :||
